svgs/mindstep.svg

<svg width="192" height="192" viewBox="0 0 192 192" fill="none" xmlns="http://www.w3.org/2000/svg">
<path d="M73 132.166C73 139.99 59.2351 146.332 42.2553 146.332C34.4969 146.332 27.4096 145.008 22 142.823M73 132.166C73 124.342 59.2351 118 42.2553 118C34.4969 118 27.4096 119.324 22 121.509M73 132.166V170" stroke="black" stroke-width="12" stroke-linecap="round" stroke-linejoin="round"/>
<path d="M104 139.962C104 149.329 122.639 156.923 145.631 156.923C154.731 156.923 163.149 155.733 170 153.715M104 139.962C104 130.594 122.639 123 145.631 123C154.731 123 163.149 124.19 170 126.208M104 139.962V170" stroke="black" stroke-width="12" stroke-linecap="round" stroke-linejoin="round"/>
<path d="M102.685 54.6642C111.513 58.3183 121.749 54.2474 125.547 45.5714C129.345 36.8955 125.267 26.9 116.438 23.2459C107.61 19.5917 97.3739 23.6627 93.5759 32.3386C89.778 41.0146 93.8561 51.0101 102.685 54.6642ZM102.685 54.6642L91.7749 88.1601M102.685 54.6642L115.766 63.5388C117.594 64.779 120.383 66.0466 122.316 64.9547L134.186 59.4639M102.685 54.6642L87.5172 56.0419C85.9533 56.184 84.514 56.9447 83.5321 58.1482L76.5812 66.6678M91.7749 88.1601L80.5872 96.01C78.7126 97.3253 76.2226 97.4245 74.2544 96.2623L67.7126 92.3994M91.7749 88.1601L109.628 87.4234C111.715 87.3372 113.681 88.3632 114.769 90.105L119.253 97.2888" stroke="black" stroke-width="12" stroke-linecap="round" stroke-linejoin="round"/>
</svg>

<svg xmlns="http://www.w3.org/2000/svg" width="192" height="192" fill="none" viewBox="0 0 192 192"><path stroke="#000" stroke-linecap="round" stroke-linejoin="round" stroke-width="12" d="M73 132.166c0 7.824-13.765 14.166-30.745 14.166-7.758 0-14.845-1.324-20.255-3.509m51-10.657C73 124.342 59.235 118 42.255 118c-7.758 0-14.845 1.324-20.255 3.509m51 10.657V170m31-30.038c0 9.367 18.639 16.961 41.631 16.961 9.1 0 17.518-1.19 24.369-3.208m-66-13.753c0-9.368 18.639-16.962 41.631-16.962 9.1 0 17.518 1.19 24.369 3.208m-66 13.754V170m-1.315-115.336c8.828 3.654 19.064-.417 22.862-9.093s-.28-18.671-9.109-22.325c-8.828-3.654-19.064.417-22.862 9.093s.28 18.671 9.109 22.325m0 0L91.775 88.16m10.91-33.496 13.081 8.875c1.828 1.24 4.617 2.508 6.55 1.416l11.87-5.491m-31.501-4.8-15.168 1.378a5.82 5.82 0 0 0-3.985 2.106l-6.95 8.52M91.774 88.16l-11.188 7.85a5.87 5.87 0 0 1-6.333.252l-6.54-3.862m24.062-4.239 17.853-.737c2.087-.086 4.053.94 5.141 2.682l4.484 7.184"/></svg>
